src/topics/icons/percy.svg

<svg height="162" preserveAspectRatio="xMidYMid" viewBox="0 0 256 162" width="256" xmlns="http://www.w3.org/2000/svg"><path d="m72.1170732 147.668293-62.1268293 9.053658 57.1317073-25.912195-62.12682925-8.741463 62.12682925-8.741464-57.1317073-25.9121949 62.1268293 9.2097561-47.6097561-41.0536585 56.9756097 26.2243903-34.0292683-52.6048781 47.297561 41.2097561-17.9512195-60.097561 33.873171 52.7609756-.312195-62.75121948 17.639024 60.25365858 17.482927-60.25365858-.156098 62.75121948 33.717073-52.9170731-17.795122 60.2536585 47.141464-41.3658537-34.029268 52.7609757 56.975609-26.2243903-47.453658 40.897561 62.126829-9.0536586-57.131707 25.9121949 62.126829 8.585366-62.126829 8.897561 57.131707 25.756098-62.126829-9.053659" fill="#1f0924"/><path d="m86.0749518 65.2491187-14.7383664-32.1564358 34.9658536 40.5853659-7.804878-52.9170732 22.009756 48.702439 7.492683-53.0731707 7.492683 53.0731707 22.009756-48.702439-7.804878 52.9170732 34.965854-40.5853659-14.738367 32.1564358 35.187147-8.8978992-7.21599 28.9749758 25.479405-7.5896099-28.063138 17.9642924-.346618 1.3918051-.715533-.7118817-15.986906 10.2338328 53.541463-.156097-51.356098 14.829268 51.356098 14.985366-53.541463-.156098h-100.5268296l-53.5414634.156098 51.3560975-14.985366-51.3560975-14.829268 53.5414634.156097-15.9869066-10.2338328-.7155325.7118817-.3466181-1.3918051-28.063138-17.9642924 25.4794048 7.5896099-7.2159901-28.9749758zm2.1816611 4.7599878 5.4019237 11.7860155-9.6780488 11.2390243-14.5197733-4.3250388zm79.4867741 0-5.401924 11.7860155 9.678049 11.2390243 14.519774-4.3250388z" fill="#edddc2"/><path d="m173.580488 71.1804878 22.321951-5.6195122-5.619512 22.3219512h-16.702439z" fill="#1f0924"/><path d="m82.4195122 71.1804878-22.3219512-5.6195122 5.6195122 22.3219512h16.702439z" fill="#1f0924"/><path d="m55.102439 153.131707h145.795122l54.790244-19.668292-55.102439-19.512195 37.931707-44.3317078-57.443902 10.7707317 10.770731-57.4439024-44.331707 37.9317073-19.512195-55.10243904-19.512195 55.10243904-44.3317074-37.9317073 10.7707317 57.4439024-57.4439025-10.7707317 37.9317073 44.3317078-55.10243898 19.512195" fill="#b157b5"/><circle cx="91.160976" cy="118.165853" fill="#fffaf3" r="18.887805"/><circle cx="91.160976" cy="118.165853" fill="#1f0924" r="14.829268"/><circle cx="86.165854" cy="113.170731" fill="#fffaf3" r="6.556098"/><circle cx="164.839025" cy="118.165853" fill="#fffaf3" r="18.887805"/><circle cx="164.839025" cy="118.165853" fill="#1f0924" r="14.829268"/><circle cx="159.687805" cy="113.170731" fill="#fffaf3" r="6.556098"/><path d="m93.502439 147.668293c0-19.043903 15.453659-34.497561 34.497561-34.497561s34.497561 15.453658 34.497561 34.497561c0 19.043902-68.995122 19.043902-68.995122 0zm-24.8195122 5.775609c0-6.243902 4.995122-11.395122 11.395122-11.395122s11.3951219 4.995122 11.3951219 11.395122-22.7902439 6.243903-22.7902439 0zm95.8439022 0c0-6.243902 4.995122-11.395122 11.395122-11.395122 6.243903 0 11.395122 4.995122 11.395122 11.395122s-22.790244 6.243903-22.790244 0z" fill="#edddc2"/><path d="m126.358199 137.87992c-.467548 2.809893-2.907515 4.949348-5.850882 4.949348-3.278049 0-5.931707-2.653658-5.931707-5.931707 0-.936585-.62439-1.560976-1.560976-1.560976-.936585 0-1.560975.624391-1.560975 1.560976 0 4.995122 4.058536 9.053659 9.053658 9.053659 3.121951 0 5.931707-1.560976 7.492683-3.90244 1.717073 2.341464 4.370732 3.90244 7.492683 3.90244 4.995122 0 8.897561-4.058537 9.053658-9.053659 0-.936585-.62439-1.560976-1.560975-1.560976-.936586 0-1.560976.624391-1.560976 1.560976 0 3.278049-2.653658 5.931707-5.931707 5.931707-2.943367 0-5.383334-2.139455-5.850882-4.949348 5.939004-.804451 10.533809-5.909748 10.533809-12.065286 0-6.712195-24.35122-6.712195-24.35122 0 0 6.155538 4.594805 11.260835 10.533809 12.065286z" fill="#1f0924"/></svg>

<?xml version="1.0" encoding="UTF-8" standalone="no"?>
<svg width="256px" height="162px" viewBox="0 0 256 162" version="1.1" xmlns="http://www.w3.org/2000/svg" xmlns:xlink="http://www.w3.org/1999/xlink" preserveAspectRatio="xMidYMid">
	<g>
		<path d="M72.1170732,147.668293 L9.9902439,156.721951 L67.1219512,130.809756 L4.99512195,122.068293 L67.1219512,113.326829 L9.9902439,87.4146341 L72.1170732,96.6243902 L24.5073171,55.5707317 L81.4829268,81.795122 L47.4536585,29.1902439 L94.7512195,70.4 L76.8,10.302439 L110.673171,63.0634146 L110.360976,0.312195122 L128,60.5658537 L145.482927,0.312195122 L145.326829,63.0634146 L179.043902,10.1463415 L161.24878,70.4 L208.390244,29.0341463 L174.360976,81.795122 L231.336585,55.5707317 L183.882927,96.4682927 L246.009756,87.4146341 L188.878049,113.326829 L251.004878,121.912195 L188.878049,130.809756 L246.009756,156.565854 L183.882927,147.512195" fill="#1F0924"></path>
		<path d="M86.0749518,65.2491187 L71.3365854,33.0926829 L106.302439,73.6780488 L98.497561,20.7609756 L120.507317,69.4634146 L128,16.3902439 L135.492683,69.4634146 L157.502439,20.7609756 L149.697561,73.6780488 L184.663415,33.0926829 L169.925048,65.2491187 L169.925048,65.2491187 L205.112195,56.3512195 L197.896205,85.3261953 L223.37561,77.7365854 L195.312472,95.7008778 L194.965854,97.0926829 L194.250321,96.3808012 L178.263415,106.614634 L231.804878,106.458537 L180.44878,121.287805 L231.804878,136.273171 L178.263415,136.117073 L77.7365854,136.117073 L24.195122,136.273171 L75.5512195,121.287805 L24.195122,106.458537 L77.7365854,106.614634 L61.7496788,96.3808012 L61.0341463,97.0926829 L60.6875282,95.7008778 L32.6243902,77.7365854 L58.103795,85.3261953 L50.8878049,56.3512195 L86.0749518,65.2491187 Z M88.2566129,70.0091065 L93.6585366,81.795122 L83.9804878,93.0341463 L69.4607145,88.7091075 L88.2566129,70.0091065 Z M167.743387,70.0091065 L162.341463,81.795122 L172.019512,93.0341463 L186.539286,88.7091075 L167.743387,70.0091065 L167.743387,70.0091065 Z" fill="#EDDDC2"></path>
		<path d="M173.580488,71.1804878 L195.902439,65.5609756 L190.282927,87.8829268 L173.580488,87.8829268 L173.580488,71.1804878 Z" fill="#1F0924"></path>
		<path d="M82.4195122,71.1804878 L60.097561,65.5609756 L65.7170732,87.8829268 L82.4195122,87.8829268 L82.4195122,71.1804878 Z" fill="#1F0924"></path>
		<path d="M55.102439,153.131707 L200.897561,153.131707 L255.687805,133.463415 L200.585366,113.95122 L238.517073,69.6195122 L181.073171,80.3902439 L191.843902,22.9463415 L147.512195,60.8780488 L128,5.77560976 L108.487805,60.8780488 L64.1560976,22.9463415 L74.9268293,80.3902439 L17.4829268,69.6195122 L55.4146341,113.95122 L0.312195122,133.463415" fill="#B157B5"></path>
		<g transform="translate(71.804878, 98.341463)">
			<circle fill="#FFFAF3" cx="19.3560976" cy="19.8243902" r="18.8878049"></circle>
			<circle fill="#1F0924" cx="19.3560976" cy="19.8243902" r="14.8292683"></circle>
			<circle fill="#FFFAF3" cx="14.3609756" cy="14.8292683" r="6.55609756"></circle>
		</g>
		<g transform="translate(145.170732, 98.341463)">
			<circle fill="#FFFAF3" cx="19.6682927" cy="19.8243902" r="18.8878049"></circle>
			<circle fill="#1F0924" cx="19.6682927" cy="19.8243902" r="14.8292683"></circle>
			<circle fill="#FFFAF3" cx="14.5170732" cy="14.8292683" r="6.55609756"></circle>
		</g>
		<path d="M93.502439,147.668293 C93.502439,128.62439 108.956098,113.170732 128,113.170732 C147.043902,113.170732 162.497561,128.62439 162.497561,147.668293 C162.497561,166.712195 93.502439,166.712195 93.502439,147.668293 Z M68.6829268,153.443902 C68.6829268,147.2 73.6780488,142.04878 80.0780488,142.04878 C86.4780488,142.04878 91.4731707,147.043902 91.4731707,153.443902 C91.4731707,159.843902 68.6829268,159.687805 68.6829268,153.443902 Z M164.526829,153.443902 C164.526829,147.2 169.521951,142.04878 175.921951,142.04878 C182.165854,142.04878 187.317073,147.043902 187.317073,153.443902 C187.317073,159.843902 164.526829,159.687805 164.526829,153.443902 Z" fill="#EDDDC2"></path>
		<path d="M126.358199,137.87992 C125.890651,140.689813 123.450684,142.829268 120.507317,142.829268 C117.229268,142.829268 114.57561,140.17561 114.57561,136.897561 C114.57561,135.960976 113.95122,135.336585 113.014634,135.336585 C112.078049,135.336585 111.453659,135.960976 111.453659,136.897561 C111.453659,141.892683 115.512195,145.95122 120.507317,145.95122 C123.629268,145.95122 126.439024,144.390244 128,142.04878 C129.717073,144.390244 132.370732,145.95122 135.492683,145.95122 C140.487805,145.95122 144.390244,141.892683 144.546341,136.897561 C144.546341,135.960976 143.921951,135.336585 142.985366,135.336585 C142.04878,135.336585 141.42439,135.960976 141.42439,136.897561 C141.42439,140.17561 138.770732,142.829268 135.492683,142.829268 C132.549316,142.829268 130.109349,140.689813 129.641801,137.87992 C135.580805,137.075469 140.17561,131.970172 140.17561,125.814634 C140.17561,119.102439 115.82439,119.102439 115.82439,125.814634 C115.82439,131.970172 120.419195,137.075469 126.358199,137.87992 Z" fill="#1F0924"></path>
	</g>
</svg>
